X:56
T:Salamanca Reel
S:Bernie Waugh
R:Reel
M:4/4
L:1/8
K:D
|:dB|\
"D"AD (3FED AD (3FED|Adcd fedc|"Em"BE (3EEE BE (3EEE|(3BBB BA Bdeg|
"Bm"fB (3BBB fB (3BBB|(3fff ef dfag|"D"(3fga ec "G"dABG|"A"FGEF "D"D2:|
|:za|\
"D"afdf "G"bgeg|"A"(3fff ef "D"dcBA|Ad~dc defg|"G"(3aba gb "F#m"a2fg|
"D stop"[d3a3]f "C stop"[=c3g3]e|"Bm"(3[Bf][Bf][Bf] ef dfag|\
"D"(3fga ec "G"dABG|"A"FGEF "D"D2:|

